icons/black/totalcommander.svg

<?xml version="1.0" encoding="UTF-8"?><svg id="a" xmlns="http://www.w3.org/2000/svg" viewBox="0 0 48 48"><defs><style>.b{fill:none;stroke:#000;stroke-linecap:round;stroke-linejoin:round;}</style></defs><path class="b" d="M9.5,5.5c-2.2091,0-4,1.7909-4,4v29c0,2.2091,1.7909,4,4,4h29c2.2091,0,4-1.7909,4-4V9.6052c0-2.2091-1.7909-4-4-4h-3.4525c-1.0746,0-1.9458.8711-1.9458,1.9458v9.2282c0,.5378-.4359.9737-.9737.9737H15.8701c-.5378,0-.9737-.4359-.9737-.9737V7.4474c0-1.0755-.8719-1.9474-1.9474-1.9474h-3.449ZM27.2901,7.0319c-.5394,0-.9737.4343-.9737.9737v6.5686c0,.5394.4343.9737.9737.9737h1.3921c.5394,0,.9737-.4343.9737-.9737v-6.5686c0-.5394-.4343-.9737-.9737-.9737h-1.3921ZM12.5388,21.9181h22.9234c1.0788,0,1.9474.8685,1.9474,1.9474v13.9811c0,1.0788-.8685,1.9474-1.9474,1.9474H12.5388c-1.0788,0-1.9474-.8685-1.9474-1.9474v-13.9811c0-1.0788.8685-1.9474,1.9474-1.9474ZM13.1963,26.5003h21.6081M34.8043,30.8572H13.1963M13.1963,35.214h21.6081"/></svg>

<svg id="Layer_2" data-name="Layer 2" xmlns="http://www.w3.org/2000/svg" viewBox="0 0 48 48"><defs><style>.cls-1{fill:none;stroke:#000;stroke-linecap:round;stroke-linejoin:round;}</style></defs><path class="cls-1" d="M7.45,5.5a2,2,0,0,0-1.95,2v33.1a2,2,0,0,0,2,2h33.1a2,2,0,0,0,2-2V7.45a2,2,0,0,0-2-1.95s-3.29.1-5.5.11A1.94,1.94,0,0,0,33.1,7.55v9.23a1,1,0,0,1-1,1H15.87a1,1,0,0,1-1-1V7.45A2,2,0,0,0,13,5.5ZM27.29,7a1,1,0,0,0-1,1v6.56a1,1,0,0,0,1,1h1.39a1,1,0,0,0,1-1V8a1,1,0,0,0-1-1ZM12.54,21.92H35.46a2,2,0,0,1,1.95,1.95v14a1.94,1.94,0,0,1-1.95,1.94H12.54a1.94,1.94,0,0,1-1.95-1.94v-14A2,2,0,0,1,12.54,21.92Zm.66,4.58H34.8m0,4.36H13.2m0,4.35H34.8"/></svg>
